X: 42
T: The Kitty in the Closet
C: Armand Aromin
H: 5/10/05
M: 4/4
L: 1/8
R: Reel
K: Dmaj
ADDE FEDB, | A,DDE FEDA, | B,EEF GFED | B,EEF E2 AG |
FDDE FEDB, | A,DDE FEDA, | B,EFE GFAF |1 BGcE d2 FG :|2 BGcE d2 ag ||
fd d2 fdad | fd d2 agfg | e2 ge bege | bege bage |
fd d2 fdad | fd d2 agfg | efga bage |1 fgfe d2 ag :|2 fgfe d2 FG |]
